X:1
L:1/8
Q:1/2=120
M:2/2
K:Gmin
 G2 G2 G2 g2 | f2 d2 B4 | f2 d2 f2 c2 | (AB)(cA) ^F4 | G2 b2 a2 g2 | (^fg)(ag) g3 a | 
 f2 d2 (de) f2 | (c3 B/c/) d4 || d2 b2 a2 d2 | (a3 g/a/) b4 | (ba)(gf) (ed)(cB) | (de) f2 A4 | 
 A2 c4 d2 | (ed)(cB) f3 f | g2 d2 (ed)(cB) | A4 G4 |]
